X: 1028
T: Alonby Lasses
R: reel
M: 4/4
K: Gmajor
|:LBGGLc BGLdG|LBGGLc BdLgd|LBGGLc BGLdG|1 cAAB cdec:|2 cAAB cdef||
gage dBGB|gage dfaf|gage dBGB|cAAB cdef|
gage dBGB|gage dfaf|gbeg dgBd|cAAB cdec||

